X:116
T: Maids in the Morning
N: O'Farrell's Pocket Companion v.2 (Sky ed. p.64)
N: "Irish"
M: 6/8
R: jig
L: 1/8
Q: 320
K: G
EGE G2A|BAG B3|EGE G2A|BGE GED|
EGE G2A|BAG B2d|ege dBG|A3 A3 :|
AGE AGE|A2B c3|EGE G2A|BGE GED|
AGE AGE|A2B c2d|ege dBG|A3 A3 :|
gfe gdB|A2B c3||EGE G2A|BGE GED|
gdB gdB|A2B c2d|ege dBG|A3 A3 :|
